packages/core/src/svgs/tokens/branded/MTL.svg

<svg width="24" height="24" viewBox="0 0 24 24" fill="none" xmlns="http://www.w3.org/2000/svg">
<path d="M2 3.25003H3.24999V20.75H2V3.25003ZM8.24998 7.00002H9.49993V18.25H8.24998V7.00002ZM14.5 9.49999H15.7499V15.75H14.5V9.49999ZM20.7499 3.25003H22V20.75H20.7499V3.25003Z" fill="white"/>
</svg>

<svg xmlns="http://www.w3.org/2000/svg" width="24" height="24" fill="none" viewBox="0 0 24 24">
    <path fill="#fff" d="M2 3.25h1.25v17.5H2zM8.25 7H9.5v11.25H8.25zm6.25 2.5h1.25v6.25H14.5zm6.25-6.25H22v17.5h-1.25z"/>
</svg>
